assets/logo-republic-protocol.svg

<svg height="60" viewBox="0 0 300 60" width="300" xmlns="http://www.w3.org/2000/svg"><g fill-rule="evenodd"><g><path d="m8.20588235 12.5735294 4.36764705-2.5147059.6176471 1.0147059 16.1911764-9.35294116-1.1911764-.70588236-1.1911765-.6617647-.5735294-.35294118-26.4264706 15.2647059v.6617647l7.58823529-4.3676471z"/><path d="m8.20588235 22.1911765 12.70588235-7.3235294.5735294 1.0147058 16.2352941-9.35294114-1.1911764-.70588235-1.1911765-.6617647-.5735294-.35294118-34.7647059 20.02941177v.7058823l7.58823529-4.367647z"/><path d="m8.20588235 27 16.85294115-9.75.5735294 1.0147059 16.2352942-9.35294119-1.1911765-.66176471-1.1911765-.70588235-.5735294-.35294118-38.9117647 22.45588233v.7058824l7.58823529-4.4117647z"/><path d="m8.20588235 31.7647059 21.13235295-12.1764706.5735294 1.0147059 16.1029412-9.3088236-1.1911765-.6617647-1.1911765-.70588231-.5735294-.30882353-43.0588235 24.83823534v.6617647l7.58823529-4.3676471z"/><path d="m8.20588235 36.5735294 25.27941175-14.6029412.5735294 1.0588236 16.1029412-9.3088236-1.1911765-.7058823-1.1470588-.6617647-.617647-.3529412-47.2058824 27.2647059v.6617647l7.58823529-4.3676471z"/><path d="m51.9705882 14.7352941-.617647-.3529412-51.3529412 29.6911765v.6617647l7.58823529-4.367647.61764706 1.0147058 25.27941175-14.6029411.5735294 1.0147058 18.7941177-10.8088235v-1.367647-.3529412z"/><path d="m3.26470588 47.6470588 4.23529412-2.4264706.61764706 1.0147059 25.23529414-14.6029412.617647 1.0588236 18.882353-10.9411765v-1.3676471-1.367647-.6617647l-50.16176473 28.9411764z"/><path d="m33.3529412 36.4411765.617647 1.0588235 18.882353-10.9411765v-1.367647-1.3676471-.6617647l-46.01470591 26.5588235.57352942.3529412 4.32352939-2.5147059.6176471 1.0147059"/><path d="m11.5588235 52.4558824 4.3676471-2.5147059.5735294 1.0588235 16.8529412-9.75.617647 1.0147059 18.882353-10.8970588v-1.3676471-1.3676471-.7058823l-41.8676471 24.1764706z"/><path d="m15.75 54.8382353 4.3235294-2.4705882.5735294 1.0147058 12.7058824-7.3235294.617647 1.0147059 18.882353-10.8970588v-1.3676471-1.367647-.7058824l-37.7205883 21.7941177z"/><path d="m19.2794118 56.9117647.617647.3529412 4.3235294-2.5147059.5735294 1.0588235 8.5588236-4.9411764.617647 1.0147058 18.882353-10.8970588v-1.367647-1.4117647-.6617648z"/><path d="m24.0441176 59.6470588 4.3235295-2.4705882.617647 1.0147059 4.3676471-2.5588236.617647 1.0588236 18.882353-10.8970589v-1.4117647-1.367647-.6617647l-29.382353 16.9852941z"/><path d="m33.5735294 4.10294118-1.1911765-.66176471-1.1911764-.70588235-.6176471-.35294118-30.5735294 17.69117646v.6617647l7.58823529-4.367647.61764706 1.0147058 8.55882355-4.9411764.5735294 1.0147059z"/></g><g transform="translate(74.117647 25.147059)"><path d="m0 9.35294118v-9.35294118h8.42647059c.75 0 1.32352941.13235294 1.67647061.44117647.3529412.26470588.5294117.75.5294117 1.36764706v2.20588235c0 .61764706-.1764705 1.10294118-.5294117 1.36764706s-.88235296.44117647-1.67647061.44117647h-1.27941177l4.45588238 3.52941177h-3.26470591l-3.92647058-3.52941177h-2.16176471v3.52941177zm7.45588235-7.72058824h-5.20588235v2.60294118h5.20588235c.39705883 0 .66176471-.04411765.79411765-.17647059s.22058824-.30882353.22058824-.57352941v-1.05882353c0-.26470588-.0882353-.48529412-.22058824-.57352941-.13235294-.17647059-.39705882-.22058824-.79411765-.22058824z" fill-rule="nonzero"/><path d="m14.3823529 9.35294118v-9.35294118h10.0147059v1.63235294h-7.7205882v2.02941177h4.5v1.63235294h-4.5v2.29411764h7.8529412v1.76470589z"/><path d="m27.7941176 9.35294118v-9.35294118h8.382353c.7941176 0 1.3235294.13235294 1.6764706.44117647.3529412.26470588.5294117.75.5294117 1.36764706v2.07352941c0 .66176471-.1764705 1.10294118-.5294117 1.36764706s-.882353.44117647-1.6764706.44117647h-6.1764706v3.66176471zm7.4117648-7.72058824h-5.2058824v2.47058824h5.2058824c.3970588 0 .6617647-.04411765.7941176-.17647059s.2205882-.30882353.2205882-.57352941v-.97058824c0-.26470588-.0882353-.48529412-.2205882-.57352941-.1323529-.13235294-.3970588-.17647059-.7941176-.17647059z" fill-rule="nonzero"/><path d="m44.2941176 0v7.58823529h6.4852942v-7.58823529h2.2941176v7.10294118c0 .83823529-.1764706 1.4117647-.5294118 1.72058823-.3529411.30882353-.9705882.48529412-1.9411764.48529412h-6.1764706c-.9264706 0-1.5882353-.13235294-1.9411765-.48529412-.3529412-.30882353-.4852941-.88235294-.4852941-1.76470588v-7.05882353z"/><path d="m57.2647059 9.35294118v-9.35294118h8.3823529c.7941177 0 1.3676471.13235294 1.6764706.44117647.3529412.26470588.5294118.75.5294118 1.36764706v1.10294118c0 .44117647-.132353.79411764-.3970588 1.05882353-.2647059.26470588-.6617648.44117647-1.1911765.52941176.5294117.08823529.9264706.26470588 1.2352941.61764706.3088235.30882353.4411765.70588235.4411765 1.19117647v1.19117647c0 .61764706-.2205883 1.05882353-.7058824 1.36764706s-1.1911765.44117647-2.1617647.44117647h-7.8088235zm7.3235294-7.80882353h-5.1176471v2.20588235h5.1176471c.3970588 0 .6617647-.04411765.7941176-.13235294.132353-.0882353.2205883-.26470588.2205883-.52941177v-.88235294c0-.26470588-.0882353-.39705882-.2205883-.52941176-.1323529-.13235294-.3970588-.13235294-.7941176-.13235294zm0 3.75h-5.1176471v2.38235294h5.1176471c.4411765 0 .7058823-.04411765.8823529-.17647059s.2205883-.35294118.2205883-.66176471v-.70588235c0-.30882353-.0882353-.52941176-.2205883-.6617647-.1323529-.13235295-.4411764-.17647059-.8823529-.17647059z" fill-rule="nonzero"/><path d="m71.7794118 9.35294118v-9.35294118h2.2941176v7.58823529h7.3235294v1.76470589z"/><path d="m83.9558824 9.35294118v-9.35294118h2.25v9.35294118z"/><path d="m98.5588235 1.72058824h-6.1323529v5.82352941h6.1323529v-1.98529412l2.2941175.48529412v1.10294117c0 .8382353-.17647 1.41176471-.485294 1.72058824-.352941.30882353-.9705882.48529412-1.9411764.48529412h-5.8235294c-.9264706 0-1.5882353-.13235294-1.8970588-.48529412-.3529412-.30882353-.4852942-.88235294-.4852942-1.76470588v-4.89705883c0-.83823529.1764706-1.4117647.4852942-1.72058823.3529411-.30882353.9705882-.48529412 1.9411764-.48529412h5.7352941c.9705883 0 1.6323531.13235294 1.9411761.48529412.352942.30882353.485295.88235294.485295 1.72058823v.92647059l-2.2941181.35294118v-1.76470588z"/><g fill-rule="nonzero"><path d="m113.117647 9.35294118v-9.35294118h8.426471c.794117 0 1.323529.13235294 1.67647.44117647.352941.26470588.529412.75.529412 1.36764706v2.07352941c0 .66176471-.176471 1.10294118-.529412 1.36764706s-.882353.44117647-1.67647.44117647h-6.176471v3.66176471zm7.455882-7.72058824h-5.205882v2.47058824h5.205882c.397059 0 .661765-.04411765.794118-.17647059s.220588-.30882353.220588-.57352941v-.97058824c0-.26470588-.088235-.48529412-.220588-.57352941-.132353-.13235294-.397059-.17647059-.794118-.17647059z"/><path d="m126.970588 9.35294118v-9.35294118h8.426471c.75 0 1.323529.13235294 1.67647.44117647.352942.26470588.529412.75.529412 1.36764706v2.20588235c0 .61764706-.17647 1.10294118-.529412 1.36764706-.352941.26470588-.882353.44117647-1.67647.44117647h-1.279412l4.455882 3.52941177h-3.264705l-3.926471-3.52941177h-2.161765v3.52941177zm7.455883-7.72058824h-5.205883v2.60294118h5.205883c.397058 0 .661764-.04411765.794117-.17647059s.220588-.30882353.220588-.57352941v-1.05882353c0-.26470588-.088235-.48529412-.220588-.57352941-.132353-.17647059-.397059-.22058824-.794117-.22058824z"/><path d="m141.132353 2.20588235c0-.83823529.176471-1.4117647.485294-1.72058823.308824-.30882353.970588-.48529412 1.941177-.48529412h7.235294c.970588 0 1.588235.13235294 1.941176.48529412.308824.30882353.485294.88235294.485294 1.72058823v4.94117647c0 .8382353-.17647 1.45588236-.485294 1.76470589-.352941.30882353-.970588.48529411-1.941176.48529411h-7.235294c-.970589 0-1.588236-.13235294-1.941177-.48529411-.308823-.30882353-.485294-.88235295-.485294-1.76470589zm2.25 5.3382353h7.544118v-5.82352941h-7.544118z"/></g><path d="m162.661765 1.67647059v7.67647059h-2.294118v-7.67647059h-4.5v-1.67647059h11.338235v1.67647059z"/><path d="m169.897059 2.20588235c0-.83823529.17647-1.4117647.485294-1.72058823.308823-.30882353.970588-.48529412 1.941176-.48529412h7.235295c.970588 0 1.588235.13235294 1.941176.48529412.308824.30882353.485294.88235294.485294 1.72058823v4.94117647c0 .8382353-.17647 1.45588236-.485294 1.76470589-.352941.30882353-.970588.48529411-1.941176.48529411h-7.235295c-.970588 0-1.588235-.13235294-1.941176-.48529411-.308824-.30882353-.485294-.88235295-.485294-1.76470589zm2.294117 5.3382353h7.544118v-5.82352941h-7.544118z" fill-rule="nonzero"/><path d="m194.073529 1.72058824h-6.132353v5.82352941h6.132353v-1.98529412l2.294118.48529412v1.10294117c0 .8382353-.176471 1.41176471-.485294 1.72058824-.352941.30882353-.970588.48529412-1.941177.48529412h-5.823529c-.926471 0-1.588235-.13235294-1.897059-.48529412-.352941-.30882353-.485294-.88235294-.485294-1.76470588v-4.89705883c0-.83823529.176471-1.4117647.485294-1.72058823.352941-.30882353.970588-.48529412 1.941177-.48529412h5.823529c.970588 0 1.632353.13235294 1.941177.48529412.352941.30882353.485294.88235294.485294 1.72058823v.92647059l-2.294118.35294118v-1.76470588z"/><path d="m199.897059 2.20588235c0-.83823529.17647-1.4117647.485294-1.72058823.308823-.30882353.970588-.48529412 1.941176-.48529412h7.235295c.970588 0 1.588235.13235294 1.941176.48529412.308824.30882353.485294.88235294.485294 1.72058823v4.94117647c0 .8382353-.17647 1.45588236-.485294 1.76470589-.352941.30882353-.970588.48529411-1.941176.48529411h-7.235295c-.970588 0-1.588235-.13235294-1.941176-.48529411-.308824-.30882353-.485294-.88235295-.485294-1.76470589zm2.294117 5.3382353h7.544118v-5.82352941h-7.544118z" fill-rule="nonzero"/><path d="m215.911765 9.35294118v-9.35294118h2.294117v7.58823529h7.32353v1.76470589z"/></g></g></svg>

<?xml version="1.0" encoding="UTF-8"?>
<svg width="300px" height="60px" viewBox="0 0 300 60" version="1.1" xmlns="http://www.w3.org/2000/svg" xmlns:xlink="http://www.w3.org/1999/xlink">
    <!-- Generator: Sketch 52.2 (67145) - http://www.bohemiancoding.com/sketch -->
    <title>Republic Protocol Logo</title>
    <desc>Created with Sketch.</desc>
    <g id="Designs" stroke="none" stroke-width="1" fill="none" fill-rule="evenodd">
        <g id="Partners" transform="translate(-810.000000, -1176.000000)" fill="#000000">
            <g id="Group-4" transform="translate(250.000000, 948.000000)">
                <g id="Group-3-Copy" transform="translate(480.000000, 158.000000)">
                    <g id="Republic-Protocol-Logo" transform="translate(80.000000, 70.000000)">
                        <g id="Group">
                            <polygon id="Path" points="8.20588235 12.5735294 12.5735294 10.0588235 13.1911765 11.0735294 29.3823529 1.72058824 28.1911765 1.01470588 27 0.352941176 26.4264706 0 0 15.2647059 0 15.9264706 7.58823529 11.5588235"></polygon>
                            <polygon id="Path" points="8.20588235 22.1911765 20.9117647 14.8676471 21.4852941 15.8823529 37.7205882 6.52941176 36.5294118 5.82352941 35.3382353 5.16176471 34.7647059 4.80882353 0 24.8382353 0 25.5441176 7.58823529 21.1764706"></polygon>
                            <polygon id="Path" points="8.20588235 27 25.0588235 17.25 25.6323529 18.2647059 41.8676471 8.91176471 40.6764706 8.25 39.4852941 7.54411765 38.9117647 7.19117647 0 29.6470588 0 30.3529412 7.58823529 25.9411765"></polygon>
                            <polygon id="Path" points="8.20588235 31.7647059 29.3382353 19.5882353 29.9117647 20.6029412 46.0147059 11.2941176 44.8235294 10.6323529 43.6323529 9.92647059 43.0588235 9.61764706 0 34.4558824 0 35.1176471 7.58823529 30.75"></polygon>
                            <polygon id="Path" points="8.20588235 36.5735294 33.4852941 21.9705882 34.0588235 23.0294118 50.1617647 13.7205882 48.9705882 13.0147059 47.8235294 12.3529412 47.2058824 12 0 39.2647059 0 39.9264706 7.58823529 35.5588235"></polygon>
                            <polygon id="Path" points="51.9705882 14.7352941 51.3529412 14.3823529 0 44.0735294 0 44.7352941 7.58823529 40.3676471 8.20588235 41.3823529 33.4852941 26.7794118 34.0588235 27.7941176 52.8529412 16.9852941 52.8529412 15.6176471 52.8529412 15.2647059"></polygon>
                            <polygon id="Path" points="3.26470588 47.6470588 7.5 45.2205882 8.11764706 46.2352941 33.3529412 31.6323529 33.9705882 32.6911765 52.8529412 21.75 52.8529412 20.3823529 52.8529412 19.0147059 52.8529412 18.3529412 2.69117647 47.2941176"></polygon>
                            <polyline id="Path" points="33.3529412 36.4411765 33.9705882 37.5 52.8529412 26.5588235 52.8529412 25.1911765 52.8529412 23.8235294 52.8529412 23.1617647 6.83823529 49.7205882 7.41176471 50.0735294 11.7352941 47.5588235 12.3529412 48.5735294"></polyline>
                            <polygon id="Path" points="11.5588235 52.4558824 15.9264706 49.9411765 16.5 51 33.3529412 41.25 33.9705882 42.2647059 52.8529412 31.3676471 52.8529412 30 52.8529412 28.6323529 52.8529412 27.9264706 10.9852941 52.1029412"></polygon>
                            <polygon id="Path" points="15.75 54.8382353 20.0735294 52.3676471 20.6470588 53.3823529 33.3529412 46.0588235 33.9705882 47.0735294 52.8529412 36.1764706 52.8529412 34.8088235 52.8529412 33.4411765 52.8529412 32.7352941 15.1323529 54.5294118"></polygon>
                            <polygon id="Path" points="19.2794118 56.9117647 19.8970588 57.2647059 24.2205882 54.75 24.7941176 55.8088235 33.3529412 50.8676471 33.9705882 51.8823529 52.8529412 40.9852941 52.8529412 39.6176471 52.8529412 38.2058824 52.8529412 37.5441176"></polygon>
                            <polygon id="Path" points="24.0441176 59.6470588 28.3676471 57.1764706 28.9852941 58.1911765 33.3529412 55.6323529 33.9705882 56.6911765 52.8529412 45.7941176 52.8529412 44.3823529 52.8529412 43.0147059 52.8529412 42.3529412 23.4705882 59.3382353"></polygon>
                            <polygon id="Path" points="33.5735294 4.10294118 32.3823529 3.44117647 32.3823529 3.44117647 31.1911765 2.73529412 30.5735294 2.38235294 0 20.0735294 0 20.7352941 7.58823529 16.3676471 8.20588235 17.3823529 16.7647059 12.4411765 17.3382353 13.4558824"></polygon>
                        </g>
                        <g id="Group" transform="translate(74.117647, 25.147059)">
                            <path d="M0,9.35294118 L0,0 L8.42647059,0 C9.17647059,0 9.75,0.132352941 10.1029412,0.441176471 C10.4558824,0.705882353 10.6323529,1.19117647 10.6323529,1.80882353 L10.6323529,4.01470588 C10.6323529,4.63235294 10.4558824,5.11764706 10.1029412,5.38235294 C9.75,5.64705882 9.22058824,5.82352941 8.42647059,5.82352941 L7.14705882,5.82352941 L11.6029412,9.35294118 L8.33823529,9.35294118 L4.41176471,5.82352941 L2.25,5.82352941 L2.25,9.35294118 L0,9.35294118 Z M7.45588235,1.63235294 L2.25,1.63235294 L2.25,4.23529412 L7.45588235,4.23529412 C7.85294118,4.23529412 8.11764706,4.19117647 8.25,4.05882353 C8.38235294,3.92647059 8.47058824,3.75 8.47058824,3.48529412 L8.47058824,2.42647059 C8.47058824,2.16176471 8.38235294,1.94117647 8.25,1.85294118 C8.11764706,1.67647059 7.85294118,1.63235294 7.45588235,1.63235294 Z" id="Shape" fill-rule="nonzero"></path>
                            <polygon id="Path" points="14.3823529 9.35294118 14.3823529 0 24.3970588 0 24.3970588 1.63235294 16.6764706 1.63235294 16.6764706 3.66176471 21.1764706 3.66176471 21.1764706 5.29411765 16.6764706 5.29411765 16.6764706 7.58823529 24.5294118 7.58823529 24.5294118 9.35294118"></polygon>
                            <path d="M27.7941176,9.35294118 L27.7941176,0 L36.1764706,0 C36.9705882,0 37.5,0.132352941 37.8529412,0.441176471 C38.2058824,0.705882353 38.3823529,1.19117647 38.3823529,1.80882353 L38.3823529,3.88235294 C38.3823529,4.54411765 38.2058824,4.98529412 37.8529412,5.25 C37.5,5.51470588 36.9705882,5.69117647 36.1764706,5.69117647 L30,5.69117647 L30,9.35294118 L27.7941176,9.35294118 Z M35.2058824,1.63235294 L30,1.63235294 L30,4.10294118 L35.2058824,4.10294118 C35.6029412,4.10294118 35.8676471,4.05882353 36,3.92647059 C36.1323529,3.79411765 36.2205882,3.61764706 36.2205882,3.35294118 L36.2205882,2.38235294 C36.2205882,2.11764706 36.1323529,1.89705882 36,1.80882353 C35.8676471,1.67647059 35.6029412,1.63235294 35.2058824,1.63235294 Z" id="Shape" fill-rule="nonzero"></path>
                            <path d="M44.2941176,0 L44.2941176,7.58823529 L50.7794118,7.58823529 L50.7794118,0 L53.0735294,0 L53.0735294,7.10294118 C53.0735294,7.94117647 52.8970588,8.51470588 52.5441176,8.82352941 C52.1911765,9.13235294 51.5735294,9.30882353 50.6029412,9.30882353 L44.4264706,9.30882353 C43.5,9.30882353 42.8382353,9.17647059 42.4852941,8.82352941 C42.1323529,8.51470588 42,7.94117647 42,7.05882353 L42,0 L44.2941176,0 Z" id="Path"></path>
                            <path d="M57.2647059,9.35294118 L57.2647059,0 L65.6470588,0 C66.4411765,0 67.0147059,0.132352941 67.3235294,0.441176471 C67.6764706,0.705882353 67.8529412,1.19117647 67.8529412,1.80882353 L67.8529412,2.91176471 C67.8529412,3.35294118 67.7205882,3.70588235 67.4558824,3.97058824 C67.1911765,4.23529412 66.7941176,4.41176471 66.2647059,4.5 C66.7941176,4.58823529 67.1911765,4.76470588 67.5,5.11764706 C67.8088235,5.42647059 67.9411765,5.82352941 67.9411765,6.30882353 L67.9411765,7.5 C67.9411765,8.11764706 67.7205882,8.55882353 67.2352941,8.86764706 C66.75,9.17647059 66.0441176,9.30882353 65.0735294,9.30882353 L57.2647059,9.30882353 L57.2647059,9.35294118 Z M64.5882353,1.54411765 L59.4705882,1.54411765 L59.4705882,3.75 L64.5882353,3.75 C64.9852941,3.75 65.25,3.70588235 65.3823529,3.61764706 C65.5147059,3.52941176 65.6029412,3.35294118 65.6029412,3.08823529 L65.6029412,2.20588235 C65.6029412,1.94117647 65.5147059,1.80882353 65.3823529,1.67647059 C65.25,1.54411765 64.9852941,1.54411765 64.5882353,1.54411765 Z M64.5882353,5.29411765 L59.4705882,5.29411765 L59.4705882,7.67647059 L64.5882353,7.67647059 C65.0294118,7.67647059 65.2941176,7.63235294 65.4705882,7.5 C65.6470588,7.36764706 65.6911765,7.14705882 65.6911765,6.83823529 L65.6911765,6.13235294 C65.6911765,5.82352941 65.6029412,5.60294118 65.4705882,5.47058824 C65.3382353,5.33823529 65.0294118,5.29411765 64.5882353,5.29411765 Z" id="Shape" fill-rule="nonzero"></path>
                            <polygon id="Path" points="71.7794118 9.35294118 71.7794118 0 74.0735294 0 74.0735294 7.58823529 81.3970588 7.58823529 81.3970588 9.35294118"></polygon>
                            <polygon id="Path" points="83.9558824 9.35294118 83.9558824 0 86.2058824 0 86.2058824 9.35294118"></polygon>
                            <path d="M98.5588235,1.72058824 L92.4264706,1.72058824 L92.4264706,7.54411765 L98.5588235,7.54411765 L98.5588235,5.55882353 L100.852941,6.04411765 L100.852941,7.14705882 C100.852941,7.98529412 100.676471,8.55882353 100.367647,8.86764706 C100.014706,9.17647059 99.3970588,9.35294118 98.4264706,9.35294118 L92.6029412,9.35294118 C91.6764706,9.35294118 91.0147059,9.22058824 90.7058824,8.86764706 C90.3529412,8.55882353 90.2205882,7.98529412 90.2205882,7.10294118 L90.2205882,2.20588235 C90.2205882,1.36764706 90.3970588,0.794117647 90.7058824,0.485294118 C91.0588235,0.176470588 91.6764706,0 92.6470588,0 L98.3823529,0 C99.3529412,0 100.014706,0.132352941 100.323529,0.485294118 C100.676471,0.794117647 100.808824,1.36764706 100.808824,2.20588235 L100.808824,3.13235294 L98.5147059,3.48529412 L98.5147059,1.72058824 L98.5588235,1.72058824 Z" id="Path"></path>
                            <path d="M113.117647,9.35294118 L113.117647,0 L121.544118,0 C122.338235,0 122.867647,0.132352941 123.220588,0.441176471 C123.573529,0.705882353 123.75,1.19117647 123.75,1.80882353 L123.75,3.88235294 C123.75,4.54411765 123.573529,4.98529412 123.220588,5.25 C122.867647,5.51470588 122.338235,5.69117647 121.544118,5.69117647 L115.367647,5.69117647 L115.367647,9.35294118 L113.117647,9.35294118 Z M120.573529,1.63235294 L115.367647,1.63235294 L115.367647,4.10294118 L120.573529,4.10294118 C120.970588,4.10294118 121.235294,4.05882353 121.367647,3.92647059 C121.5,3.79411765 121.588235,3.61764706 121.588235,3.35294118 L121.588235,2.38235294 C121.588235,2.11764706 121.5,1.89705882 121.367647,1.80882353 C121.235294,1.67647059 120.970588,1.63235294 120.573529,1.63235294 Z" id="Shape" fill-rule="nonzero"></path>
                            <path d="M126.970588,9.35294118 L126.970588,0 L135.397059,0 C136.147059,0 136.720588,0.132352941 137.073529,0.441176471 C137.426471,0.705882353 137.602941,1.19117647 137.602941,1.80882353 L137.602941,4.01470588 C137.602941,4.63235294 137.426471,5.11764706 137.073529,5.38235294 C136.720588,5.64705882 136.191176,5.82352941 135.397059,5.82352941 L134.117647,5.82352941 L138.573529,9.35294118 L135.308824,9.35294118 L131.382353,5.82352941 L129.220588,5.82352941 L129.220588,9.35294118 L126.970588,9.35294118 Z M134.426471,1.63235294 L129.220588,1.63235294 L129.220588,4.23529412 L134.426471,4.23529412 C134.823529,4.23529412 135.088235,4.19117647 135.220588,4.05882353 C135.352941,3.92647059 135.441176,3.75 135.441176,3.48529412 L135.441176,2.42647059 C135.441176,2.16176471 135.352941,1.94117647 135.220588,1.85294118 C135.088235,1.67647059 134.823529,1.63235294 134.426471,1.63235294 Z" id="Shape" fill-rule="nonzero"></path>
                            <path d="M141.132353,2.20588235 C141.132353,1.36764706 141.308824,0.794117647 141.617647,0.485294118 C141.926471,0.176470588 142.588235,0 143.558824,0 L150.794118,0 C151.764706,0 152.382353,0.132352941 152.735294,0.485294118 C153.044118,0.794117647 153.220588,1.36764706 153.220588,2.20588235 L153.220588,7.14705882 C153.220588,7.98529412 153.044118,8.60294118 152.735294,8.91176471 C152.382353,9.22058824 151.764706,9.39705882 150.794118,9.39705882 L143.558824,9.39705882 C142.588235,9.39705882 141.970588,9.26470588 141.617647,8.91176471 C141.308824,8.60294118 141.132353,8.02941176 141.132353,7.14705882 L141.132353,2.20588235 Z M143.382353,7.54411765 L150.926471,7.54411765 L150.926471,1.72058824 L143.382353,1.72058824 L143.382353,7.54411765 Z" id="Shape" fill-rule="nonzero"></path>
                            <polygon id="Path" points="162.661765 1.67647059 162.661765 9.35294118 160.367647 9.35294118 160.367647 1.67647059 155.867647 1.67647059 155.867647 0 167.205882 0 167.205882 1.67647059"></polygon>
                            <path d="M169.897059,2.20588235 C169.897059,1.36764706 170.073529,0.794117647 170.382353,0.485294118 C170.691176,0.176470588 171.352941,0 172.323529,0 L179.558824,0 C180.529412,0 181.147059,0.132352941 181.5,0.485294118 C181.808824,0.794117647 181.985294,1.36764706 181.985294,2.20588235 L181.985294,7.14705882 C181.985294,7.98529412 181.808824,8.60294118 181.5,8.91176471 C181.147059,9.22058824 180.529412,9.39705882 179.558824,9.39705882 L172.323529,9.39705882 C171.352941,9.39705882 170.735294,9.26470588 170.382353,8.91176471 C170.073529,8.60294118 169.897059,8.02941176 169.897059,7.14705882 L169.897059,2.20588235 Z M172.191176,7.54411765 L179.735294,7.54411765 L179.735294,1.72058824 L172.191176,1.72058824 L172.191176,7.54411765 Z" id="Shape" fill-rule="nonzero"></path>
                            <path d="M194.073529,1.72058824 L187.941176,1.72058824 L187.941176,7.54411765 L194.073529,7.54411765 L194.073529,5.55882353 L196.367647,6.04411765 L196.367647,7.14705882 C196.367647,7.98529412 196.191176,8.55882353 195.882353,8.86764706 C195.529412,9.17647059 194.911765,9.35294118 193.941176,9.35294118 L188.117647,9.35294118 C187.191176,9.35294118 186.529412,9.22058824 186.220588,8.86764706 C185.867647,8.55882353 185.735294,7.98529412 185.735294,7.10294118 L185.735294,2.20588235 C185.735294,1.36764706 185.911765,0.794117647 186.220588,0.485294118 C186.573529,0.176470588 187.191176,0 188.161765,0 L193.985294,0 C194.955882,0 195.617647,0.132352941 195.926471,0.485294118 C196.279412,0.794117647 196.411765,1.36764706 196.411765,2.20588235 L196.411765,3.13235294 L194.117647,3.48529412 L194.117647,1.72058824 L194.073529,1.72058824 Z" id="Path"></path>
                            <path d="M199.897059,2.20588235 C199.897059,1.36764706 200.073529,0.794117647 200.382353,0.485294118 C200.691176,0.176470588 201.352941,0 202.323529,0 L209.558824,0 C210.529412,0 211.147059,0.132352941 211.5,0.485294118 C211.808824,0.794117647 211.985294,1.36764706 211.985294,2.20588235 L211.985294,7.14705882 C211.985294,7.98529412 211.808824,8.60294118 211.5,8.91176471 C211.147059,9.22058824 210.529412,9.39705882 209.558824,9.39705882 L202.323529,9.39705882 C201.352941,9.39705882 200.735294,9.26470588 200.382353,8.91176471 C200.073529,8.60294118 199.897059,8.02941176 199.897059,7.14705882 L199.897059,2.20588235 Z M202.191176,7.54411765 L209.735294,7.54411765 L209.735294,1.72058824 L202.191176,1.72058824 L202.191176,7.54411765 Z" id="Shape" fill-rule="nonzero"></path>
                            <polygon id="Path" points="215.911765 9.35294118 215.911765 0 218.205882 0 218.205882 7.58823529 225.529412 7.58823529 225.529412 9.35294118"></polygon>
                        </g>
                    </g>
                </g>
            </g>
        </g>
    </g>
</svg>
